X:1
T:Zwölf Gesänge
T:Daphne am Bach
T:Zwölf Gesänge
T:11. Daphne am Bach
T:Louise Reichardt
T:Friedrich Leopold, Graf zu Stolberg-Stolberg
T:Creative Commons copyright waiver (CC0 1.0 Universal)
C:Louise Reichardt
Z:Friedrich Leopold zu Stolberg-Stolberg
Z:Creative Commons copyright waiver (CC0 1.0 Universal)
%%score 1 { ( 2 5 ) | ( 3 4 ) }
L:1/8
Q:1/4=90
M:2/4
K:Ab
V:1 treble nm="Voice"
V:2 treble nm="Piano"
V:5 treble 
V:3 bass 
V:4 bass 
V:1
"^Wehmüthig" E | c c c B |{B} A2 A A | d d c c | B2 z E | c c d3/2 G/ | B2 A A | B B d c | B3 B | %9
w: Ich|hab' ein Bäch- lein|fun- den, vom|Städt- chen gar nicht|weit, da|sitz' ich man- che|Stun- den, in|stil- ler Ein- sam-|keit; ich|
 B c B A | A2 G B | c c e A |{c} B3 B | d d c c | f2 e/d/ c/B/ | A A/B/ c B | A3 :| %17
w: thät mir gleich er-|kie- sen ein|Plätz- chen kühl- es|Moos, da|sitz' ich, und da|flies- sen * mir *|Thrä- nen * in den|Schooss.|
V:2
 E | [EAc][EAc]{c} [DGB]2 |{B} [CEA]2 A[EA] | [EBd][EBd] [EAc][EAc] | [EGB]2 z E | %5
 [EAc][EAc] [EBd]>[DG] | [CEB]2 A[EA] | [EB][EB] [EBd][EAc] | [EGB]3 [EGB] | [FB]2 [FA]2 | %10
 A2 G[GB] | [EAc][EAc] [EAe]A |{c} [GB]3 B | [Ad][Ad] [Ac][Ac] | [FAf]3 [DFB] | %15
 [CEA][CEA] [EA][DG] | [CEA]3 :| %17
V:3
 z | A,A, E,2 | [A,,A,]3 C | G,G, A,A, | E,2 z2 | A,A, E,2 | [A,,A,]3 C | G,G, G,A, | E,3 z | %9
 =D,2 D,2 | E,3 z | A,A, C2 | E3 z |[I:staff -1] FF EE | D3[I:staff +1] D, | E,E, E,2 | [A,,A,]3 :| %17
V:4
 x | x4 | x4 | x4 | x4 | x4 | x4 | x4 | x4 | B,2 B,2 | B,3 z | x4 | x4 | x4 | x4 | x4 | x3 :| %17
V:5
 x | x4 | x4 | x4 | x4 | x4 | x4 | x4 | x4 | x4 | E3 x | x4 | x3 G | x4 | x4 | x4 | x3 :| %17

